app/assets/images/achievements/icons8-angry-man.svg

<svg xmlns="http://www.w3.org/2000/svg"  viewBox="0 0 50 50" width="100px" height="100px"><path d="M 19.3125 0 C 5.082031 0 0 10.332031 0 20 C 0 26.46875 1.570313 29.058594 3.09375 31.5625 C 4.582031 34.007813 6 36.308594 6 42.59375 L 6 49 C 6 49.554688 6.449219 50 7 50 L 24 50 C 24.445313 50 24.808594 49.714844 24.9375 49.3125 C 26.167969 49.617188 28.183594 50 30.3125 50 C 35.015625 50 37.859375 47.5 38 43.3125 C 39.003906 41.855469 39 41.390625 39 41.1875 C 39 39.933594 38.140625 39 37 39 C 31.78125 39 30.199219 38.222656 29.78125 37.5625 C 29.738281 37.492188 29.640625 37.308594 29.65625 37 L 36.8125 37 C 37.277344 36.996094 37.679688 36.671875 37.78125 36.21875 L 38.28125 34 L 39 34 C 39.328125 34 39.625 33.832031 39.8125 33.5625 C 40 33.292969 40.054688 32.964844 39.9375 32.65625 C 39.484375 31.460938 39.644531 30.484375 39.78125 30.03125 L 43.46875 28.1875 C 44.855469 27.417969 45.339844 25.707031 44.5625 24.3125 C 44.539063 24.269531 44.53125 24.226563 44.5 24.1875 L 40 18.375 C 39.980469 13.105469 38.3125 8.65625 35.1875 5.5 C 31.585938 1.859375 26.257813 0 19.3125 0 Z M 27.1875 17.5 L 34.90625 20.1875 C 34.207031 22.289063 31.789063 23.386719 29.6875 22.6875 C 27.585938 21.988281 26.488281 19.601563 27.1875 17.5 Z M 48.875 33 C 48.855469 33.007813 48.832031 33.019531 48.8125 33.03125 L 43.8125 34.03125 C 43.417969 34.042969 43.0625 34.285156 42.914063 34.652344 C 42.765625 35.019531 42.84375 35.441406 43.121094 35.726563 C 43.398438 36.011719 43.816406 36.105469 44.1875 35.96875 L 49.1875 34.96875 C 49.691406 34.84375 50.019531 34.355469 49.9375 33.839844 C 49.855469 33.328125 49.394531 32.960938 48.875 33 Z M 35.59375 34 L 36.25 34 L 36 35 L 30.875 35 C 31.828125 34.316406 33.324219 34 35.59375 34 Z M 41.8125 37 C 41.375 37.074219 41.039063 37.429688 40.988281 37.871094 C 40.941406 38.3125 41.183594 38.734375 41.59375 38.90625 L 48.59375 41.90625 C 48.925781 42.105469 49.339844 42.09375 49.660156 41.882813 C 49.980469 41.667969 50.152344 41.289063 50.097656 40.90625 C 50.042969 40.527344 49.773438 40.207031 49.40625 40.09375 L 42.40625 37.09375 C 42.222656 37.003906 42.015625 36.96875 41.8125 37 Z"/></svg>

<svg xmlns="http://www.w3.org/2000/svg" xmlns:xlink="http://www.w3.org/1999/xlink" viewBox="0,0,256,256" width="100px" height="100px"><g fill="#ce7474" fill-rule="nonzero" stroke="none" stroke-width="1" stroke-linecap="butt" stroke-linejoin="miter" stroke-miterlimit="10" stroke-dasharray="" stroke-dashoffset="0" font-family="none" font-weight="none" font-size="none" text-anchor="none" style="mix-blend-mode: normal"><g transform="scale(5.12,5.12)"><path d="M19.3125,0c-14.23047,0 -19.3125,10.33203 -19.3125,20c0,6.46875 1.57031,9.05859 3.09375,11.5625c1.48828,2.44531 2.90625,4.74609 2.90625,11.03125v6.40625c0,0.55469 0.44922,1 1,1h17c0.44531,0 0.80859,-0.28516 0.9375,-0.6875c1.23047,0.30469 3.24609,0.6875 5.375,0.6875c4.70313,0 7.54688,-2.5 7.6875,-6.6875c1.00391,-1.45703 1,-1.92187 1,-2.125c0,-1.25391 -0.85937,-2.1875 -2,-2.1875c-5.21875,0 -6.80078,-0.77734 -7.21875,-1.4375c-0.04297,-0.07031 -0.14062,-0.25391 -0.125,-0.5625h7.15625c0.46484,-0.00391 0.86719,-0.32812 0.96875,-0.78125l0.5,-2.21875h0.71875c0.32813,0 0.625,-0.16797 0.8125,-0.4375c0.1875,-0.26953 0.24219,-0.59766 0.125,-0.90625c-0.45312,-1.19531 -0.29297,-2.17187 -0.15625,-2.625l3.6875,-1.84375c1.38672,-0.76953 1.87109,-2.48047 1.09375,-3.875c-0.02344,-0.04297 -0.03125,-0.08594 -0.0625,-0.125l-4.5,-5.8125c-0.01953,-5.26953 -1.6875,-9.71875 -4.8125,-12.875c-3.60156,-3.64062 -8.92969,-5.5 -15.875,-5.5zM27.1875,17.5l7.71875,2.6875c-0.69922,2.10156 -3.11719,3.19922 -5.21875,2.5c-2.10156,-0.69922 -3.19922,-3.08594 -2.5,-5.1875zM48.875,33c-0.01953,0.00781 -0.04297,0.01953 -0.0625,0.03125l-5,1c-0.39453,0.01172 -0.75,0.25391 -0.89844,0.62109c-0.14844,0.36719 -0.07031,0.78906 0.20703,1.07422c0.27734,0.28516 0.69531,0.37891 1.06641,0.24219l5,-1c0.50391,-0.125 0.83203,-0.61328 0.75,-1.12891c-0.08203,-0.51172 -0.54297,-0.87891 -1.0625,-0.83984zM35.59375,34h0.65625l-0.25,1h-5.125c0.95313,-0.68359 2.44922,-1 4.71875,-1zM41.8125,37c-0.4375,0.07422 -0.77344,0.42969 -0.82422,0.87109c-0.04687,0.44141 0.19531,0.86328 0.60547,1.03516l7,3c0.33203,0.19922 0.74609,0.1875 1.06641,-0.02344c0.32031,-0.21484 0.49219,-0.59375 0.4375,-0.97656c-0.05469,-0.37891 -0.32422,-0.69922 -0.69141,-0.8125l-7,-3c-0.18359,-0.08984 -0.39062,-0.125 -0.59375,-0.09375z"></path></g></g></svg>
